icons/svgs/opentable.svg

<?xml version="1.0" encoding="UTF-8" standalone="no"?>
<svg
   xmlns:dc="http://purl.org/dc/elements/1.1/"
   xmlns:cc="http://creativecommons.org/ns#"
   xmlns:rdf="http://www.w3.org/1999/02/22-rdf-syntax-ns#"
   xmlns:svg="http://www.w3.org/2000/svg"
   xmlns="http://www.w3.org/2000/svg"
   xmlns:sodipodi="http://sodipodi.sourceforge.net/DTD/sodipodi-0.dtd"
   xmlns:inkscape="http://www.inkscape.org/namespaces/inkscape"
   width="192px"
   height="192px"
   viewBox="0 0 192 192"
   version="1.1"
   id="svg6"
   sodipodi:docname="opentable.svg"
   inkscape:export-filename="D:\ZeusOfTheCrows\My Files\LocalDev\Appstract\icons\appstract-dark\opentable.png"
   inkscape:export-xdpi="96"
   inkscape:export-ydpi="96"
   inkscape:version="0.92.4 (5da689c313, 2019-01-14)">
  <metadata
     id="metadata12">
    <rdf:RDF>
      <cc:Work
         rdf:about="">
        <dc:format>image/svg+xml</dc:format>
        <dc:type
           rdf:resource="http://purl.org/dc/dcmitype/StillImage" />
      </cc:Work>
    </rdf:RDF>
  </metadata>
  <defs
     id="defs10" />
  <sodipodi:namedview
     pagecolor="#ffffff"
     bordercolor="#666666"
     borderopacity="1"
     objecttolerance="10"
     gridtolerance="10"
     guidetolerance="10"
     inkscape:pageopacity="0"
     inkscape:pageshadow="2"
     inkscape:window-width="2498"
     inkscape:window-height="1421"
     id="namedview8"
     showgrid="false"
     inkscape:zoom="3.4766083"
     inkscape:cx="66.089313"
     inkscape:cy="55.006825"
     inkscape:window-x="2617"
     inkscape:window-y="-5"
     inkscape:window-maximized="1"
     inkscape:current-layer="open-table" />
  <!-- Generated by Pixelmator Pro 2.0.1 -->
  <g
     id="open-table">
    <path
       id="Ellipse"
       d="M 178,96.5 C 178,63.501 151.249,36.75 118.25,36.75 85.251,36.75 58.5,63.501 58.5,96.5 c 0,32.999 26.751,59.75 59.75,59.75 32.999,0 59.75,-26.751 59.75,-59.75 z"
       inkscape:connector-curvature="0"
       style="fill:#f86567;fill-opacity:1;stroke:none"
       inkscape:label="red-big" />
    <path
       id="Ellipse-1"
       d="m 42.25,96.25 c 0,-8.146 -6.604,-14.75 -14.75,-14.75 -8.146,0 -14.75,6.604 -14.75,14.75 0,8.146 6.604,14.75 14.75,14.75 8.146,0 14.75,-6.604 14.75,-14.75 z"
       inkscape:connector-curvature="0"
       style="fill:#f86567;fill-opacity:1;stroke:none"
       inkscape:label="red-small" />
    <path
       id="Ellipse-2"
       d="m 134,96 c 0,-8.284 -6.716,-15 -15,-15 -8.284,0 -15,6.716 -15,15 0,8.284 6.716,15 15,15 8.284,0 15,-6.716 15,-15 z"
       inkscape:connector-curvature="0"
       style="fill:none;fill-opacity:1;stroke:#000000;stroke-width:6;stroke-linecap:round;stroke-linejoin:round;stroke-miterlimit:4;stroke-dasharray:none;stroke-opacity:1"
       inkscape:label="stroke" />
  </g>
</svg>

<?xml version="1.0" encoding="UTF-8"?>
<svg width="192px" height="192px" viewBox="0 0 192 192" xmlns="http://www.w3.org/2000/svg" xmlns:xlink="http://www.w3.org/1999/xlink" version="1.1">
 <!-- Generated by Pixelmator Pro 2.0.1 -->
 <g id="open-table">
  <path id="Ellipse" d="M178 96.5 C178 63.501 151.249 36.75 118.25 36.75 85.251 36.75 58.5 63.501 58.5 96.5 58.5 129.499 85.251 156.25 118.25 156.25 151.249 156.25 178 129.499 178 96.5 Z" fill="#f86567" fill-opacity="1" stroke="none"/>
  <path id="Ellipse-1" d="M42.25 96.25 C42.25 88.104 35.646 81.5 27.5 81.5 19.354 81.5 12.75 88.104 12.75 96.25 12.75 104.396 19.354 111 27.5 111 35.646 111 42.25 104.396 42.25 96.25 Z" fill="#f86567" fill-opacity="1" stroke="none"/>
  <path id="Ellipse-2" d="M134 96 C134 87.716 127.284 81 119 81 110.716 81 104 87.716 104 96 104 104.284 110.716 111 119 111 127.284 111 134 104.284 134 96 Z" fill="#000000" fill-opacity="1" stroke="none"/>
 </g>
</svg>
